X:1
T:Broken Hearts
T:Broken Hearts
T:John Marchant Whyte
T:John Marchant Whyte, 1890
T:Public Domain Courtesy of the Cyber Hymnal™
C:John Marchant Whyte
Z:Public Domain
Z:Courtesy of the Cyber Hymnal™
%%score 1 ( 2 3 )
L:1/8
Q:1/4=100
M:4/4
K:Bb
V:1 treble 
V:2 bass 
V:3 bass 
V:1
 [DF]>[DF] [DF]3 [DF] [EG]>[DF] | [DF]2 [DB]2 z2 [DF]>[DF] | [EF]3 [EF] [EA]2 [Ec]2 | [DB]6 z2 | %4
w: 1.~Like the mu- sic of a|fount- ain Which a|thirst- y trav- eler|hears,|
w: 2.~Tho’ thy heart is crushed and|brok- en, Like a|storm tossed ship at|sea,|
w: 3.~Tho’ thy song hath naught but|sor- row, Like a|bird’s whose breast is|torn,|
w: 4.~Look a- way be- yond thy|sad- ness, Up to|Je- sus turn thy|gaze;|
 [DF]>[DF] [DF]3 [DF] [EG]>[DF] | [DF]2 [DB]2 z2 [DF]>[DF] | [EF]3 [EF] [EA]2 [Ec]2 | [DB]6 z2 || %8
w: Speaks a voice from Cal- v’ry’s|mount- ain, “I am|more than all thy|fears.”|
w: Sink- ing, dy- ing, Christ hath|spok- en, “It is|I, look un- to|Me.”|
w: Fly to Christ, nor wait the|mor- row, He hath|all thy sor- rows|borne.|
w: Then thy song shall turn to|glad- ness— Then thy|tongue shall sound His|praise.|
"^Refrain" [Ac]3 [Ac] [Ac]>[FB] [EA]>[EG] | [DF]2 ([FB]2 F>=E F2) | %10
w: ||
w: O ye brok- en hearts, look|up- ward! * * *|
w: ||
w: ||
 [GB]3 [GB] [GB]>[GB] [Gd]>[Ac] | [Ae]2 ([Ac]2 A>B c2) | [Fd]3 [Fd] [Fe]>[Fe] [G=e]>[Ge] | %13
w: |||
w: Hear the an- gel voic- es|call- ing, * * *|Lift your eyes to Cal- v’ry’s|
w: |||
w: |||
 [Ff]2 ([DF]2 E2 D2) | [DF]>[DF] [EF]>[EF] [EA]2 [Ec]2 | [DB]6 z2 |] %16
w: |||
w: Je- sus, * *|Brok- en heart- ed there for|you.|
w: |||
w: |||
V:2
 [B,,B,]>[B,,B,] [B,,B,]3 [B,,B,] [B,,B,]>[B,,B,] | [B,,B,]2 [B,,B,]2 z2 [F,B,]>[F,B,] | %2
w: ||
 [F,C]3 [F,C] [F,C]2 [F,A,]2 | [B,,B,]6 z2 | [B,,B,]>[B,,B,] [B,,B,]3 [B,,B,] [B,,B,]>[B,,B,] | %5
w: |||
 [B,,B,]2 [B,,B,]2 z2 [F,B,]>[F,B,] | [F,C]3 [F,C] [F,C]2 [F,A,]2 | [B,,B,]6 z2 || %8
w: |||
 [F,E]3 [F,E] [F,E]>[F,D] [F,C]>[F,B,] | [B,,B,]2 [B,,D]2 [B,D]>[B,^C] [B,D]2 | %10
w: |* * brok- en hearts,|
 [G,D]3 [G,D] [G,D]>[G,D] [G,B,]>[F,A,] | [F,C]2 [F,E]2 [F,C]>[F,D] [F,E]2 | %12
w: |* * call- ing you,|
 B,2 B,2 [A,C]2 [G,C]2 | [F,D]2 [F,B,]2 [F,C]2 [B,,B,]2 | %14
w: Lift your eyes to|* * Je- sus|
 [F,B,]>[F,B,] [F,C]>[F,C] [F,C]2 [F,A,]2 | [B,,B,]6 z2 |] %16
w: ||
V:3
 x8 | x8 | x8 | x8 | x8 | x8 | x8 | x8 || x8 | x8 | x8 | x8 | B,2 B,2 x4 | x8 | x8 | x8 |] %16

